status/24/audio-volume-headphones-symbolic.svg

<?xml version="1.0" encoding="UTF-8" standalone="no"?>
<svg
   height="24"
   width="24"
   version="1.1"
   id="svg6"
   xmlns="http://www.w3.org/2000/svg"
   xmlns:svg="http://www.w3.org/2000/svg"
   xmlns:rdf="http://www.w3.org/1999/02/22-rdf-syntax-ns#"
   xmlns:cc="http://creativecommons.org/ns#"
   xmlns:dc="http://purl.org/dc/elements/1.1/">
  <metadata
     id="metadata12">
    <rdf:RDF>
      <cc:Work
         rdf:about="">
        <dc:format>image/svg+xml</dc:format>
        <dc:type
           rdf:resource="http://purl.org/dc/dcmitype/StillImage" />
      </cc:Work>
    </rdf:RDF>
  </metadata>
  <defs
     id="defs10" />
  <path
     id="path889"
     style="font-variation-settings:normal;opacity:1;vector-effect:none;fill:#555761;fill-opacity:1;stroke:none;stroke-width:4;stroke-linecap:round;stroke-linejoin:round;stroke-miterlimit:4;stroke-dasharray:none;stroke-dashoffset:0;stroke-opacity:1;-inkscape-stroke:none;stop-color:#000000;stop-opacity:1"
     d="M 12 5 C 8.1340107 5 5 8.3578685 5 12.5 C 5.0057 12.853698 5.0262629 13.195109 5.0605469 13.484375 L 5.515625 16.955078 C 5.533703 17.092393 5.6595601 17.188 5.796875 17.169922 L 6.2929688 17.103516 C 6.4302835 17.085436 6.5258904 16.961534 6.5078125 16.824219 L 6.0664062 13.470703 C 6.0190986 13.121415 5.9992663 12.831862 6 12.5 C 6 8.9101527 8.6862948 6 12 6 C 15.313706 6 18 8.9101527 18 12.5 C 18.000734 12.831862 17.980902 13.121415 17.933594 13.470703 L 17.492188 16.824219 C 17.474111 16.961534 17.569716 17.085436 17.707031 17.103516 L 18.203125 17.169922 C 18.34044 17.188 18.466295 17.092393 18.484375 16.955078 L 18.939453 13.484375 C 18.973743 13.195109 18.9943 12.853698 19 12.5 C 19 8.3578685 15.865989 5 12 5 z " />
  <path
     style="opacity:1;vector-effect:none;fill:#555761;fill-opacity:1;stroke:none;stroke-width:1;stroke-linecap:butt;stroke-linejoin:miter;stroke-miterlimit:4;stroke-dasharray:none;stroke-dashoffset:0;stroke-opacity:1;marker:none;paint-order:normal"
     d="m 8.8075976,11.937674 c -0.043986,-0.003 -0.08867,-0.0017 -0.1341564,0.0043 l -0.8553537,0.111988 c -0.3638873,0.04792 -0.6187113,0.379526 -0.5708042,0.743414 l 0.7408497,5.626873 c 0.047906,0.363887 0.3795261,0.617856 0.7434142,0.569948 L 9.5869,18.881406 c 0.3638873,-0.04794 0.617857,-0.378697 0.569951,-0.742585 L 9.4159997,12.5119 C 9.3740786,12.193499 9.1154834,11.959248 8.8075976,11.937677 Z"
     id="path1691" />
  <path
     style="vector-effect:none;fill:#555761;fill-opacity:1;stroke:none;stroke-width:1;stroke-linecap:butt;stroke-linejoin:miter;stroke-miterlimit:4;stroke-dasharray:none;stroke-dashoffset:0;stroke-opacity:1;marker:none;paint-order:normal"
     d="m 15.203066,11.937674 c 0.04399,-0.003 0.08867,-0.0017 0.134156,0.0043 l 0.855354,0.111988 c 0.363887,0.04792 0.618711,0.379526 0.570804,0.743414 l -0.74085,5.626873 c -0.04791,0.363887 -0.379526,0.617856 -0.743414,0.569948 l -0.855353,-0.112791 c -0.363887,-0.04794 -0.617857,-0.378697 -0.569951,-0.742585 L 14.594663,12.5119 c 0.04192,-0.318401 0.300517,-0.552652 0.608403,-0.574223 z"
     id="path1691-2" />
</svg>

<svg
        xmlns='http://www.w3.org/2000/svg'
        xmlns:svg='http://www.w3.org/2000/svg'
        id='svg6'
        width='24'
        height='24'>
  <path
          id='path889'
          opacity='1'
          fill='url(#gpa:foreground) #555761'
          fill-opacity='1'
          fill-rule='nonzero'
          stroke='none'
          stroke-opacity='1'
          stroke-width='4'
          stroke-linecap='round'
          stroke-linejoin='round'
          stroke-miterlimit='4'
          stroke-dasharray='none'
          stroke-dashoffset='0'
          d='M 12 5 C 8.13401 5, 5 8.35787, 5 12.5 C 5.0057 12.8537, 5.02626 13.1951, 5.06055 13.4844 L 5.51562 16.9551 C 5.5337 17.0924, 5.65956 17.188, 5.79688 17.1699 L 6.29297 17.1035 C 6.43028 17.0854, 6.52589 16.9615, 6.50781 16.8242 L 6.06641 13.4707 C 6.0191 13.1214, 5.99927 12.8319, 6 12.5 C 6 8.91015, 8.68629 6, 12 6 C 15.3137 6, 18 8.91015, 18 12.5 C 18.0007 12.8319, 17.9809 13.1214, 17.9336 13.4707 L 17.4922 16.8242 C 17.4741 16.9615, 17.5697 17.0854, 17.707 17.1035 L 18.2031 17.1699 C 18.3404 17.188, 18.4663 17.0924, 18.4844 16.9551 L 18.9395 13.4844 C 18.9737 13.1951, 18.9943 12.8537, 19 12.5 C 19 8.35787, 15.866 5, 12 5 Z'
          class="foreground">
  </path>
  <path
          id='path1691'
          opacity='1'
          fill='url(#gpa:foreground) #555761'
          fill-opacity='1'
          fill-rule='nonzero'
          stroke='none'
          stroke-opacity='1'
          stroke-width='1'
          stroke-linecap='butt'
          stroke-linejoin='miter'
          stroke-miterlimit='4'
          stroke-dasharray='none'
          stroke-dashoffset='0'
          marker-start='none'
          marker-mid='none'
          marker-end='none'
          paint-order='normal'
          d='M 8.8076 11.9377 C 8.76361 11.9347, 8.71893 11.936, 8.67344 11.942 L 7.81809 12.054 C 7.4542 12.1019, 7.19938 12.4335, 7.24728 12.7974 L 7.98813 18.4242 C 8.03604 18.7881, 8.36766 19.0421, 8.73155 18.9942 L 9.5869 18.8814 C 9.95079 18.8335, 10.2048 18.5027, 10.1569 18.1388 L 9.416 12.5119 C 9.37408 12.1935, 9.11548 11.9592, 8.8076 11.9377 Z'
          class="foreground">
  </path>
  <path
          id='path1691-2'
          fill='url(#gpa:foreground) #555761'
          fill-opacity='1'
          fill-rule='nonzero'
          stroke='none'
          stroke-opacity='1'
          stroke-width='1'
          stroke-linecap='butt'
          stroke-linejoin='miter'
          stroke-miterlimit='4'
          stroke-dasharray='none'
          stroke-dashoffset='0'
          marker-start='none'
          marker-mid='none'
          marker-end='none'
          paint-order='normal'
          d='M 15.2031 11.9377 C 15.2471 11.9347, 15.2917 11.936, 15.3372 11.942 L 16.1926 12.054 C 16.5565 12.1019, 16.8113 12.4335, 16.7634 12.7974 L 16.0225 18.4242 C 15.9746 18.7881, 15.643 19.0421, 15.2791 18.9942 L 14.4238 18.8814 C 14.0599 18.8335, 13.8059 18.5027, 13.8538 18.1388 L 14.5947 12.5119 C 14.6366 12.1935, 14.8952 11.9592, 15.2031 11.9377 Z'
          class="foreground">
  </path>
</svg>
